X:040
T: Stir Your Feet Johnny
N: O'Farrell's Pocket Companion v.1 (Sky ed. p.35)
M: 6/8
L: 1/8
R: jig
Q: 320
K: D
d|AGF A2D|DED FED|AGF A2D|F3 d3|
AGF A2D|DED AGF|EFE E2F|G3 B2 :|z|ABc d2F|
AGF d2F|ABc dAF|B3 d3|ABc ded|cBA d2A|
Bcd EGE|G3 B3|ABc d2F|AGF d2F|ABc dAF|
B3 d3|faf gec|fdB AFD|EFE E2F|G3 B3 ||
